X: 32202
T: Pheonix, The
R: polka
M: 2/4
K: Aminor
|:A/G/A cc|ee A2|ec dB|e/d/c d2|
A/G/A cc|ee A2|ec dB|c/B/A A2:|
K: Amaj
|:f/e/f a2|f/e/f a2|df eg|fd e2|
f/e/f a2|f/e/f a2|af ge|fd A2:|

